temp/img/about-us-page/our-company-image.svg

<svg width="179" height="235" viewBox="0 0 179 235" fill="none" xmlns="http://www.w3.org/2000/svg">
<path d="M176.738 95.6572C179.207 91.6057 179.207 86.5734 176.737 82.5229L171.865 74.5333C171.223 73.4804 170.975 72.2301 171.167 71.0129L172.619 61.7859C173.359 57.0836 171.427 52.4235 167.578 49.6232L160.028 44.131C159.029 43.4045 158.32 42.3447 158.029 41.1449L155.83 32.0574C154.714 27.4414 151.153 23.8806 146.537 22.7634L137.449 20.564C136.249 20.2734 135.189 19.5638 134.463 18.5656L128.97 11.013C126.17 7.1639 121.51 5.23111 116.809 5.97191L107.578 7.42414C106.361 7.61554 105.11 7.36769 104.058 6.72603L96.0675 1.85252C92.0165 -0.617737 86.9842 -0.617278 82.9332 1.85252L74.9431 6.72465C73.8911 7.36677 72.6413 7.61371 71.4227 7.42277L62.1953 5.97054C57.4944 5.23065 52.8334 7.16252 50.0335 11.0116L44.5413 18.5623C43.8148 19.5606 42.7545 20.2702 41.5542 20.5608L32.4668 22.7598C27.8517 23.876 24.29 27.4373 23.1728 32.0528L20.9733 41.1407C20.6828 42.3405 19.9737 43.4012 18.9749 44.1269L11.4223 49.62C7.57327 52.4194 5.64186 57.079 6.38128 61.7813L7.83351 71.012C8.02491 72.2297 7.77706 73.4799 7.1354 74.5319L2.26235 82.5233C-0.206992 86.5743 -0.206992 91.6066 2.26281 95.6572L7.13494 103.647C7.7766 104.7 8.02491 105.95 7.83306 107.168L6.38082 116.395C5.64048 121.097 7.57235 125.757 11.4214 128.557L18.9722 134.049C19.9705 134.775 20.6801 135.836 20.9706 137.036L23.1696 146.123C24.2858 150.739 27.8471 154.3 32.4627 155.417L36.2576 156.335L10.5755 213.623C10.0298 214.841 10.1808 216.257 10.9716 217.332C11.762 218.407 13.0687 218.974 14.3942 218.815L35.0587 216.345L46.9629 233.415C47.6597 234.413 48.7966 235 49.9996 235C50.1148 235 50.2314 234.994 50.347 234.984C51.6753 234.859 52.8343 234.028 53.38 232.812L79.6087 174.301L82.9322 176.327C84.9577 177.562 87.2283 178.18 89.4994 178.18C91.7705 178.18 94.0411 177.562 96.0666 176.327L99.5099 174.228L125.772 232.812C126.317 234.029 127.476 234.859 128.805 234.984C128.921 234.995 129.037 235 129.152 235C130.355 235 131.492 234.413 132.189 233.415L144.093 216.345L164.757 218.816C166.082 218.973 167.39 218.408 168.18 217.333C168.97 216.258 169.122 214.841 168.576 213.624L142.881 156.304L146.533 155.421C151.148 154.304 154.71 150.743 155.827 146.128L158.026 137.04C158.317 135.84 159.027 134.779 160.025 134.054L167.577 128.56C171.426 125.761 173.358 121.101 172.618 116.399L171.166 107.169C170.975 105.951 171.223 104.701 171.864 103.649L176.738 95.6572ZM49.2969 223.814L39.8629 210.286C39.0808 209.164 37.7433 208.563 36.3856 208.727L20.0095 210.685L43.4081 158.488C43.8359 158.802 44.2196 159.179 44.5358 159.614L50.029 167.167C50.5508 167.884 51.1374 168.535 51.7768 169.114L39.4608 196.588C38.6245 198.454 39.459 200.645 41.3252 201.482C41.8172 201.703 42.3318 201.807 42.8376 201.807C44.2522 201.807 45.6034 200.992 46.2189 199.617L58.4913 172.242C59.6989 172.407 60.9422 172.405 62.1902 172.208L71.4204 170.756C71.973 170.669 72.5316 170.677 73.0755 170.767L49.2969 223.814ZM159.143 210.684L142.766 208.727C141.407 208.564 140.071 209.164 139.289 210.286L129.855 223.814L106.066 170.746C106.565 170.678 107.074 170.678 107.578 170.757L116.805 172.21C118.103 172.414 119.397 172.407 120.651 172.221L132.932 199.618C133.549 200.993 134.899 201.808 136.314 201.808C136.82 201.808 137.334 201.703 137.826 201.483C139.692 200.646 140.527 198.455 139.69 196.589L127.328 169.01C127.924 168.457 128.475 167.844 128.967 167.168L134.459 159.618C134.805 159.142 135.229 158.734 135.705 158.404L159.143 210.684ZM170.413 91.8008L165.54 99.7922C163.987 102.341 163.385 105.37 163.85 108.319L165.302 117.549C165.607 119.49 164.809 121.414 163.221 122.57L155.668 128.063C153.25 129.822 151.531 132.391 150.828 135.297L148.628 144.385C148.167 146.29 146.697 147.76 144.792 148.222L135.704 150.421C132.797 151.124 130.228 152.843 128.469 155.261L122.977 162.812C121.821 164.401 119.898 165.198 117.956 164.892L108.729 163.44C105.779 162.976 102.75 163.576 100.2 165.131L92.2106 170.003C90.5385 171.022 88.4603 171.022 86.7891 170.003L78.7977 165.131C76.8103 163.918 74.5319 163.287 72.2264 163.287C71.5747 163.287 70.9197 163.337 70.2702 163.44L61.0396 164.892C59.0981 165.198 57.1749 164.399 56.0192 162.811L50.5256 155.258C48.7668 152.841 46.1978 151.121 43.292 150.418L34.2041 148.219C32.2988 147.758 30.8287 146.288 30.3674 144.382L28.1684 135.295C27.4652 132.388 25.7463 129.819 23.3279 128.06L15.7776 122.567C14.1886 121.411 13.3914 119.487 13.6971 117.546L15.1493 108.319C15.6133 105.369 15.013 102.34 13.4584 99.7908L8.58625 91.8003C7.56684 90.1283 7.56684 88.0504 8.58625 86.3788L13.4593 78.3874C15.0134 75.8382 15.6142 72.8098 15.1502 69.8604L13.698 60.6302C13.3927 58.6891 14.1905 56.7655 15.779 55.6098L23.3321 50.1162C25.7495 48.3574 27.4689 45.7884 28.1721 42.8826L30.3715 33.7947C30.8328 31.8894 32.3025 30.4193 34.2082 29.958L43.2961 27.759C46.2024 27.0559 48.7718 25.3365 50.5302 22.9186L56.0224 15.3678C57.1781 13.7788 59.1013 12.9806 61.0432 13.2868L70.2707 14.739C73.221 15.2039 76.2499 14.6027 78.7991 13.0481L86.7886 8.17596C88.4607 7.15702 90.539 7.15702 92.2102 8.17596L100.202 13.0486C102.751 14.6036 105.78 15.2044 108.729 14.7399L117.96 13.2877C119.9 12.9834 121.824 13.7802 122.98 15.3687L128.474 22.9213C130.233 25.3388 132.801 27.0582 135.707 27.7613L144.795 29.9608C146.7 30.4221 148.171 31.8917 148.632 33.7974L150.831 42.8849C151.534 45.7912 153.253 48.361 155.671 50.1199L163.222 55.6121C164.811 56.7678 165.608 58.6919 165.303 60.6329L163.85 69.8604C163.386 72.8103 163.987 75.8387 165.541 78.3883L170.413 86.3788C171.433 88.0509 171.433 90.1287 170.413 91.8008Z" fill="#FFB321"/>
</svg>

<svg width="179" height="235" viewBox="0 0 179 235" fill="none" xmlns="http://www.w3.org/2000/svg"><path d="M176.738 95.657a12.569 12.569 0 0 0-.001-13.134l-4.872-7.99a5.21 5.21 0 0 1-.698-3.52l1.452-9.227a12.563 12.563 0 0 0-5.041-12.163l-7.55-5.492a5.214 5.214 0 0 1-1.999-2.986l-2.199-9.088a12.563 12.563 0 0 0-9.293-9.294l-9.088-2.199c-1.2-.29-2.26-1-2.986-1.998l-5.493-7.553a12.56 12.56 0 0 0-12.161-5.041l-9.231 1.452a5.214 5.214 0 0 1-3.52-.698l-7.99-4.873a12.566 12.566 0 0 0-13.135 0l-7.99 4.872a5.213 5.213 0 0 1-3.52.698L62.195 5.97a12.563 12.563 0 0 0-12.162 5.04l-5.492 7.551a5.215 5.215 0 0 1-2.987 1.999l-9.087 2.199a12.565 12.565 0 0 0-9.294 9.293l-2.2 9.088c-.29 1.2-1 2.26-1.998 2.986l-7.553 5.493a12.561 12.561 0 0 0-5.04 12.161l1.452 9.231a5.213 5.213 0 0 1-.699 3.52l-4.873 7.991a12.568 12.568 0 0 0 0 13.134l4.873 7.99a5.214 5.214 0 0 1 .698 3.521l-1.452 9.227a12.56 12.56 0 0 0 5.04 12.162l7.551 5.492a5.214 5.214 0 0 1 1.999 2.987l2.199 9.087a12.563 12.563 0 0 0 9.293 9.294l3.795.918-25.683 57.288a3.702 3.702 0 0 0 3.82 5.192l20.664-2.47 11.904 17.07a3.705 3.705 0 0 0 6.417-.603L79.609 174.3l3.323 2.026a12.598 12.598 0 0 0 6.567 1.853 12.6 12.6 0 0 0 6.568-1.853l3.443-2.099 26.262 58.584a3.703 3.703 0 0 0 6.417.603l11.904-17.07 20.664 2.471a3.705 3.705 0 0 0 3.819-5.192l-25.695-57.32 3.652-.883a12.567 12.567 0 0 0 9.294-9.293l2.199-9.088a5.213 5.213 0 0 1 1.999-2.986l7.552-5.494a12.56 12.56 0 0 0 5.041-12.161l-1.452-9.23a5.219 5.219 0 0 1 .698-3.52l4.874-7.992zM49.297 223.814l-9.434-13.528a3.7 3.7 0 0 0-3.477-1.559l-16.377 1.958 23.4-52.197c.427.314.81.691 1.127 1.126l5.493 7.553a12.731 12.731 0 0 0 1.748 1.947L39.46 196.588a3.704 3.704 0 0 0 6.758 3.029l12.272-27.375a12.68 12.68 0 0 0 3.7-.034l9.23-1.452a5.19 5.19 0 0 1 1.654.011l-23.778 53.047zm109.846-13.13l-16.377-1.957a3.7 3.7 0 0 0-3.477 1.559l-9.434 13.528-23.789-53.068a5.213 5.213 0 0 1 1.512.011l9.227 1.453c1.298.204 2.592.197 3.846.011l12.281 27.397a3.705 3.705 0 0 0 4.894 1.865 3.703 3.703 0 0 0 1.864-4.894l-12.362-27.579a12.737 12.737 0 0 0 1.639-1.842l5.492-7.55c.346-.476.77-.884 1.246-1.214l23.438 52.28zm11.27-118.883l-4.873 7.991a12.629 12.629 0 0 0-1.69 8.527l1.452 9.23a5.19 5.19 0 0 1-2.081 5.021l-7.553 5.493a12.626 12.626 0 0 0-4.84 7.234l-2.2 9.088a5.19 5.19 0 0 1-3.836 3.837l-9.088 2.199a12.625 12.625 0 0 0-7.235 4.84l-5.492 7.551a5.184 5.184 0 0 1-5.021 2.08l-9.227-1.452a12.63 12.63 0 0 0-8.529 1.691l-7.99 4.872a5.19 5.19 0 0 1-5.42 0l-7.992-4.872a12.619 12.619 0 0 0-8.528-1.691l-9.23 1.452a5.186 5.186 0 0 1-5.02-2.081l-5.494-7.553a12.63 12.63 0 0 0-7.234-4.84l-9.088-2.199a5.187 5.187 0 0 1-3.837-3.837l-2.199-9.087a12.625 12.625 0 0 0-4.84-7.235l-7.55-5.493a5.186 5.186 0 0 1-2.08-5.021l1.451-9.227a12.629 12.629 0 0 0-1.69-8.528L8.585 91.8a5.188 5.188 0 0 1 0-5.422l4.873-7.992a12.63 12.63 0 0 0 1.691-8.527l-1.452-9.23a5.186 5.186 0 0 1 2.081-5.02l7.553-5.494a12.629 12.629 0 0 0 4.84-7.233l2.2-9.088a5.188 5.188 0 0 1 3.836-3.837l9.088-2.199a12.625 12.625 0 0 0 7.234-4.84l5.492-7.551a5.184 5.184 0 0 1 5.021-2.081l9.228 1.452c2.95.465 5.979-.136 8.528-1.69l7.99-4.873a5.19 5.19 0 0 1 5.421 0l7.992 4.873a12.622 12.622 0 0 0 8.527 1.69l9.231-1.451a5.189 5.189 0 0 1 5.02 2.08l5.494 7.553a12.627 12.627 0 0 0 7.233 4.84l9.088 2.2a5.188 5.188 0 0 1 3.837 3.836l2.199 9.088a12.627 12.627 0 0 0 4.84 7.235l7.551 5.492a5.187 5.187 0 0 1 2.081 5.02l-1.453 9.228a12.632 12.632 0 0 0 1.691 8.528l4.872 7.99a5.186 5.186 0 0 1 0 5.423z" fill="#FFB321"/></svg>
